X:1
T: ACH, The Director
C:
R:Strathspey
Q:128
K:C
M:4/4
L:1/16
g2|:ec3 c3B c3B ce3|d3c df3 G4 (3GAB|c3C B3C A3C (3GAB|c3B ce3 d4 g3f|
ec3 c3B c3B ce3|d3c df3 G4 (3GAB|c3d eg3 A4 (3GAc|c8-c3d e3d|
cA3 a3g a3g f2ga|gG3 Ac3 G4 (3efg|a3A g3A f3A e3A|d2cd e3c A4G4|
Ge3 e3d c3B ce3|d3c df3 G4 (3GAB|c3d eg3 A4 (3GAc|1c8-c3d e3f:|2c6d2c4||
